X:723
%%etbk:tnset id:71,pos:1,rep:3x,ant:
%%etbk:wsite https://thesession.org/tunes/7159
%%etbk:color #ffffcc
%%etbk:pldat 2016-09-13T16:32,2016-09-11T16:43,2016-09-10T16:18,2016-09-07T15:31,2016-07-26T17:12,2016-06-13T17:57,2016-03-17T17:20,2016-03-16T16:35,2016-03-15T17:29,2016-03-14T19:26,2016-02-26T17:47,2016-01-27T17:34,2016-01-26T17:45,2016-01-19T16:08,2016-01-03T13:39,2016-01-02T14:34,2016-01-01T15:28,2015-12-31T15:11,2015-12-29T16:22,2015-12-28T16:28,2015-12-27T14:51,2015-12-13T16:00,2015-05-10T11:40
T: Letting The Ranch Go Fallow
Z: Piano Box Version by Martin Fleischmann
H: Created 2015-05-02 /  Last Modified 2016-01-19
R: jig
M: 6/8
L: 1/8
K: Dmin
F|:!3!GAG FGA|!5!c!4!AG !2!F!1!D!2!C|!3!D!1!A,A, DEF|!4!EDC !1!DEF|
!4!G2!3!G FGA|cAG FDC|DA,A, DEF|EDC D3:|
|:!1!A,!3!D!5!F A,DF|!1!C!2!E!4!G !1!GAB|!2!A!4!de dcA|!2!AG!3!F !2!EDC|
A,DF A,DF|CEG GAB|1Ade dcA|!1!G!2!E!1!C !1!D2 G,:|2 !1!Afe d!1!A!3!A|!3!AG!1!E !1!D2!2!F||


